X:1
T:Title
%%score { 1 | 2 }
L:1/8
M:3/2
K:Bb
V:1 treble nm="Grand Piano"
V:2 bass 
V:1
 z4 z2[Q:1/4=100] [DF]2 [_D=E]2 [_EG]2 | [DF]6 [DB]2 [EA]2 [Ec]2 | [DB]6 [B,D]2 [CE]2 [DF]2 | %3
 G6 B2 A2 G2 |[M:3/4] [DF]6 | [DF]2 [_D=E]2 [_EG]2 |[M:6/4] [DF]6 [Fd]2 [Fe]2 [Fd]2 | %7
 [EG]6 [FA]2 [GB]2 G2 | F6 F2 F2 F2 |[M:3/4] [DF]6 | F2 F2 F2 |[M:6/4] c6 =B2 c2 d2 | %12
 B6 [^Fd]2 [Fd]2 [Fc]2 | [GB]6 [Gc]2 [GB]2 [EG]2 |[M:3/4] [DF]6 | [DF]2 [_D=E]2 [_EG]2 | %16
[M:6/4] [DF]6 [Fd]2 [Fe]2 [Fd]2 | [EG]6 [FA]2 [GB]2 G2 | %18
 F6 F2 F2 F2[Q:1/4=99][Q:1/4=97][Q:1/4=96][Q:1/4=94][Q:1/4=93][Q:1/4=91][Q:1/4=90][Q:1/4=88][Q:1/4=87][Q:1/4=85][Q:1/4=84][Q:1/4=82][Q:1/4=81][Q:1/4=79][Q:1/4=78][Q:1/4=76] | %19
[M:3/4] [DF]6 |] %20
V:2
 z4 z2 [B,,B,]2 [B,,B,]2 [B,,B,]2 | [B,,B,]6 [B,,B,]2 [F,C]2 [F,A,]2 | %2
 [B,,B,]6 [B,,F,]2 [B,,F,]2 [B,,B,]2 | [E,B,E]6 [E,G,E]2 [E,A,E]2 [E,B,E]2 |[M:3/4] [B,,B,]6 | %5
 [B,,B,]2 [B,,B,]2 [B,,B,]2 |[M:6/4] [B,,B,]6 [B,,B,]2 [C,A,]2 [D,B,]2 | %7
 [E,B,]6 [E,B,]2 [E,B,]2 [E,B,E]2 | [F,B,D]6 [F,A,C]2 [F,B,D]2 [F,CE]2 |[M:3/4] [B,,B,]6 | %10
 [F,A,E]2 [F,A,E]2 [F,A,E]2 |[M:6/4] [F,A,E]6 [F,A,D]2 [F,A,E]2 [^F,A,D]2 | %12
 [G,B,D]6 [D,A,]2 [D,A,]2 [D,D]2 | [G,D]6 [E,E]2 [E,E]2 [E,B,]2 |[M:3/4] [B,,B,]6 | %15
 [B,,B,]2 [B,,B,]2 [B,,B,]2 |[M:6/4] [B,,B,]6 [B,,B,]2 [C,A,]2 [D,B,]2 | %17
 [E,B,]6 [E,B,]2 [E,B,]2 [E,B,E]2 | [F,B,D]6 [F,A,C]2 [F,B,D]2 [F,CE]2 |[M:3/4] [B,,B,]6 |] %20

